X:1
T:Title
%%score { ( 1 3 ) | ( 2 4 ) }
L:1/8
Q:1/4=100
M:4/4
K:Ab
V:1 treble nm="Grand Piano"
V:3 treble 
V:2 bass 
V:4 bass 
V:1
 [Ec]2 [Ec][Ec] [Ec]2 [DEB][CEA] | [A,FA]2 [A,EG][A,DF] [DF] .[CE]3 | A2 AA A2 G[FA] | %3
w: T.~C.~O'Kane * * * * *|||
 [EB]2 [=DB]2 [EB]4 | [Ec]2 [Ec][Ec] [Ec]2 [DEB][CEA] | [A,FA]2 [A,EG][A,DF] [A,DF] .[A,CE]3 | %6
w: |||
 [CEA]2 [DFA][DFA] [EA]2 [DEG][CEA] | [DGB]2 [CA]G [CEA]4 | c2 c>c d2 c2 | e2 e>c [GB]4 | %10
w: ||||
 [GB]2 [GB]>[GB] [Ec]2 [EB]2 | [=DB]2 [DA]>[DF] z2 _D2 | [A,CA]>[B,DG] [CEA]2 [DGB]>[CA] [DGB]2 | %13
w: |||
[M:9/8] [Ec]>[C=EB][Fc]- [Fc][Fd]>[Fd] [Fd]3 |[M:4/4] c4 c2 B2 | B4 [CA]4 |] %16
w: |||
V:2
 [A,,A,]2 [A,,A,][A,,A,] [A,,A,]2 B,,C, | D,2 D,D, [A,,A,] .[A,,A,]3 | %2
 [F,CF]2 [F,CF][F,CF] [F,CF]2 [E,E][E,B,] | [E,G,]2 [B,,A,]2 [E,G,]4 | %4
 [A,,A,]2 [A,,A,][A,,A,] [A,,A,]2 B,,C, | D,2 D,D, A,, .A,,3 | A,,2 D,D, C,2 B,,A,, | %7
 E,2 z B, A,,4 | [A,E]2 [A,E]>[A,E] [A,F]2 [A,E]2 | [A,CA]2 [A,CA]>[A,EA][K:bass] [E,E]4 | %10
 [E,E]2 [E,D]>[E,B,] [E,A,]2 [E,G,]2 | [B,,F,]2 [B,,F,]>[B,,A,] [E,G,]4 | A,,>A,, A,,2 E,>E, E,2 | %13
[M:9/8] A,>G,[F,A,]- [F,A,][D,A,]>[D,A,] [D,A,]3 |[M:4/4] [E,A,E]4 [E,A,E]2 [E,G,D]2 | %15
 [E,G,D]4 [A,,A,]4 |] %16
V:3
 x8 | x8 | x8 | x8 | x8 | x8 | x8 | z2 E2 z4 | x8 | x8 | x8 | z4 E4 | x8 |[M:9/8] x9 |[M:4/4] x8 | %15
 x8 |] %16
V:4
 x8 | x8 | x8 | x8 | x8 | x8 | x8 | z2 [E,,E,]2 z4 | x8 | x4[K:bass] x4 | x8 | x8 | x8 | %13
[M:9/8] x9 |[M:4/4] x8 | x8 |] %16

